packages/devextreme-scss/images/icons/generic/cursormove.svg

<!-- Generated by IcoMoon.io -->
<svg version="1.1" xmlns="http://www.w3.org/2000/svg" width="18" height="18" viewBox="0 0 18 18">
<path d="M10 4v4h4v-2l3 3-3 3v-2h-4v4h2l-3 3-3-3h2v-4h-4v2l-3-3 3-3v2h4v-4h-2l3-3 3 3h-2z"></path>
</svg>

<svg width="18" height="18" viewBox="0 0 18 18" fill="none" xmlns="http://www.w3.org/2000/svg">
<path d="M10 4V8H14V6L17 9L14 12V10H10V14H12L9 17L6 14H8V10H4V12L1 9L4 6V8H8V4H6L9 1L12 4H10Z" fill="black"/>
</svg>
